X: 1
T: Reel Beloeil
C: Edouard Picard
O: Trad Qu\'ebec
R: reel
Z: 2008 John Chambers <jc:trillian.mit.edu>
M: C|
L: 1/8
K: D
FE \
| "D"D3D "(A7)"DFEG | "D"FDDE F2DF | "D"AdcB "A7"AGFE | "D"DFAd "A7"BGEC |
| "D"D3D "(A7)"DFEG | "D"FDDE F2DF | "D"AdcB "A7"AGFE | "D"DdAF     D2 :|
|: AG \
| "D"FAdA FAdA | "G"GBdB "Em"GBdB | "A7"Acec Acec | "D"dfed "A7"cBAG |
| "D"FAdA FAdA | "G"GBdB "Em"GBdB | "A7"Acec Acec |    dfec  "D"d2 :|
